X:1
T: Highland Lassie
C:
R:Reel
Q: 232
K:A
M:4/4
L:1/8
E2|A2 A2 A2 Bc|A2 A2 A2 c2|d3c B2 A2|GA BG E2 FG|A2 A2 A2 Bc|A2 A2 A2 c2|d3e fe fg|a6 E2|
A2 A2 A2 Bc|A2 A2 A2 c2|d3c B2 A2|GA BG E2 FG|A2 A2 A2 Bc|A2 A2 A2 c2|d3e fe fg|a6 e2|
a3e c2 e2|d2 d2 dB df|b3f ^d2 f2|e2 e2 e2 fg|a3e c2 e2|d2 d2 d3f|e2 c2 d2 B2|A6 e2|
a3e c2 e2|d2 d2 dB df|b3f ^d2 f2|e2 e2 e2 fg|a3e c2 e2|d2 d2 d3f|e2 c2 d2 B2|A6||
